frontend/images/whyzipsea.svg

<svg xmlns="http://www.w3.org/2000/svg" fill="none" viewBox="0 0 24 24"><path stroke="#2f2f2f" stroke-linejoin="round" stroke-width="2" d="m12 2 1.09 6.26L20 9l-6.91.74L12 16l-1.09-6.26L4 9l6.91-.74z"/><path fill="#2f2f2f" d="m12 16 .5 2.5 2.5.5-2.5.5L12 22l-.5-2.5L9 19l2.5-.5z"/></svg>

<svg width="24" height="24" viewBox="0 0 24 24" fill="none" xmlns="http://www.w3.org/2000/svg">
<path d="M12 2L13.09 8.26L20 9L13.09 9.74L12 16L10.91 9.74L4 9L10.91 8.26L12 2Z" stroke="#2f2f2f" stroke-width="2" stroke-linejoin="round"/>
<path d="M12 16L12.5 18.5L15 19L12.5 19.5L12 22L11.5 19.5L9 19L11.5 18.5L12 16Z" fill="#2f2f2f"/>
</svg>
